src/assets/img/stripe_solid_white_powered_by.svg

<svg xmlns="http://www.w3.org/2000/svg" width="119" height="26"><path fill-rule="evenodd" fill="#FFF" d="M113 26H6a6 6 0 01-6-6V6a6 6 0 016-6h107a6 6 0 016 6v14a6 6 0 01-6 6zM11.128 8.892H8.571v7.241h1.347v-2.6h1.21c1.474 0 2.526-.947 2.526-2.315 0-1.368-1.052-2.326-2.526-2.326zm5.915 1.853c-1.589 0-2.715 1.136-2.715 2.757 0 1.61 1.126 2.757 2.715 2.757s2.705-1.147 2.705-2.757c0-1.621-1.116-2.757-2.705-2.757zm9.893.126l-1.063 3.578-1.063-3.578h-1.22l-1.063 3.578-1.063-3.578h-1.347l1.81 5.262h1.21l1.063-3.578 1.074 3.578h1.21l1.799-5.262h-1.347zm4.316-.126c-1.505 0-2.599 1.126-2.599 2.715 0 1.641 1.115 2.799 2.704 2.799.589 0 1.189-.137 1.789-.41v-1.127c-.547.316-1.084.495-1.568.495-.884 0-1.515-.547-1.6-1.347h3.568c.021-.179.021-.347.021-.495 0-1.546-.937-2.63-2.315-2.63zm6.472.052a1.586 1.586 0 00-.442-.052c-.452 0-.915.231-1.294.652v-.526h-1.347v5.262h1.347v-3.515c.347-.442.821-.684 1.263-.684.158 0 .326.021.473.063v-1.2zm3.084-.052c-1.505 0-2.599 1.126-2.599 2.715 0 1.641 1.115 2.799 2.704 2.799.59 0 1.19-.137 1.789-.41v-1.127c-.547.316-1.083.495-1.568.495-.883 0-1.515-.547-1.599-1.347h3.567c.021-.179.021-.347.021-.495 0-1.546-.936-2.63-2.315-2.63zm8.104-2.179h-1.358v2.663c-.41-.316-.873-.484-1.336-.484-1.4 0-2.378 1.136-2.378 2.757 0 1.62.978 2.757 2.378 2.757.463 0 .926-.168 1.336-.495v.369h1.358V8.566zm6.778 2.179c-.452 0-.916.168-1.336.484V8.566h-1.347v7.567h1.347v-.369c.42.327.884.495 1.336.495 1.41 0 2.378-1.137 2.378-2.757 0-1.621-.968-2.757-2.378-2.757zm6.62.126l-1.273 3.452-1.263-3.452h-1.379l2.01 5.072-1.01 2.494H60.7l2.989-7.566H62.31zm10.799-.583c.863 0 1.96.264 2.824.731V8.344a7.508 7.508 0 00-2.822-.519c-2.303 0-3.838 1.203-3.838 3.213 0 3.143 4.316 2.633 4.316 3.988 0 .525-.456.695-1.089.695-.941 0-2.155-.389-3.108-.907v2.711a7.884 7.884 0 003.105.644c2.361 0 3.988-1.166 3.988-3.21 0-3.386-4.341-2.778-4.341-4.056 0-.443.37-.615.965-.615zm9.071-2.274h-2.156l-.002-2.466-2.772.59-.013 9.109c0 1.681 1.265 2.922 2.95 2.922.928 0 1.614-.168 1.992-.376v-2.311c-.363.145-2.155.666-2.155-1.007v-4.04h2.156V8.014zm6.095.001c-.378-.136-1.705-.384-2.37.838l-.178-.839h-2.455v9.952h2.838v-6.747c.671-.881 1.804-.711 2.165-.594v-2.61zm3.724-3.785l-2.85.606v2.313l2.85-.606V4.23zm0 3.784h-2.85v9.952h2.85V8.014zm6.126-.189a3.18 3.18 0 00-2.224.89l-.148-.701h-2.5l.001 13.254 2.839-.604.006-3.213c.408.299 1.015.718 2.009.718 2.031 0 3.889-1.634 3.889-5.242 0-3.306-1.878-5.102-3.872-5.102zm8.924 0c-2.701 0-4.345 2.296-4.345 5.188 0 3.424 1.938 5.156 4.704 5.156 1.357 0 2.376-.308 3.147-.736v-2.287c-.774.39-1.662.628-2.789.628-1.107 0-2.082-.392-2.209-1.723h5.559c.013-.153.038-.748.038-1.023 0-2.908-1.408-5.203-4.105-5.203zm-.018 2.315c.697 0 1.437.537 1.437 1.815h-2.936c0-1.279.789-1.815 1.499-1.815zm-9.585 5.521c-.666 0-1.063-.24-1.339-.539l-.017-4.219c.296-.325.705-.563 1.356-.563 1.039 0 1.754 1.164 1.754 2.649 0 1.529-.704 2.672-1.754 2.672zm-42.04-.56c-.368 0-.737-.158-1.052-.473v-2.252c.315-.316.684-.474 1.052-.474.758 0 1.284.653 1.284 1.6 0 .947-.526 1.599-1.284 1.599zm-8.893 0c-.769 0-1.295-.652-1.295-1.599s.526-1.6 1.295-1.6c.368 0 .736.158 1.041.474v2.252c-.305.315-.673.473-1.041.473zm-5.757-3.315c.599 0 1.031.495 1.073 1.211h-2.294c.063-.726.568-1.211 1.221-1.211zm-9.557 0c.6 0 1.032.495 1.074 1.211h-2.295c.064-.726.569-1.211 1.221-1.211zm-14.156 3.347c-.789 0-1.336-.663-1.336-1.631s.547-1.631 1.336-1.631c.779 0 1.326.663 1.326 1.631s-.547 1.631-1.326 1.631zm-6.104-2.694H9.918V9.987h1.021c.779 0 1.326.495 1.326 1.231 0 .726-.547 1.221-1.326 1.221z"/></svg>

<svg 
 xmlns="http://www.w3.org/2000/svg"
 xmlns:xlink="http://www.w3.org/1999/xlink"
 width="119px" height="26px">
<path fill-rule="evenodd"  fill="rgb(255, 255, 255)"
 d="M113.000,26.000 L6.000,26.000 C2.686,26.000 -0.000,23.314 -0.000,20.000 L-0.000,6.000 C-0.000,2.686 2.686,-0.000 6.000,-0.000 L113.000,-0.000 C116.314,-0.000 119.000,2.686 119.000,6.000 L119.000,20.000 C119.000,23.314 116.314,26.000 113.000,26.000 ZM11.128,8.892 L8.571,8.892 L8.571,16.133 L9.918,16.133 L9.918,13.533 L11.128,13.533 C12.602,13.533 13.654,12.586 13.654,11.218 C13.654,9.850 12.602,8.892 11.128,8.892 ZM17.043,10.745 C15.454,10.745 14.328,11.881 14.328,13.502 C14.328,15.112 15.454,16.259 17.043,16.259 C18.632,16.259 19.748,15.112 19.748,13.502 C19.748,11.881 18.632,10.745 17.043,10.745 ZM26.936,10.871 L25.873,14.449 L24.810,10.871 L23.590,10.871 L22.527,14.449 L21.464,10.871 L20.117,10.871 L21.927,16.133 L23.137,16.133 L24.200,12.555 L25.274,16.133 L26.484,16.133 L28.283,10.871 L26.936,10.871 ZM31.252,10.745 C29.747,10.745 28.653,11.871 28.653,13.460 C28.653,15.101 29.768,16.259 31.357,16.259 C31.946,16.259 32.546,16.122 33.146,15.849 L33.146,14.722 C32.599,15.038 32.062,15.217 31.578,15.217 C30.694,15.217 30.063,14.670 29.978,13.870 L33.546,13.870 C33.567,13.691 33.567,13.523 33.567,13.375 C33.567,11.829 32.630,10.745 31.252,10.745 ZM37.724,10.797 C37.577,10.755 37.430,10.745 37.282,10.745 C36.830,10.745 36.367,10.976 35.988,11.397 L35.988,10.871 L34.641,10.871 L34.641,16.133 L35.988,16.133 L35.988,12.618 C36.335,12.176 36.809,11.934 37.251,11.934 C37.409,11.934 37.577,11.955 37.724,11.997 L37.724,10.797 ZM40.808,10.745 C39.303,10.745 38.209,11.871 38.209,13.460 C38.209,15.101 39.324,16.259 40.913,16.259 C41.503,16.259 42.103,16.122 42.702,15.849 L42.702,14.722 C42.155,15.038 41.619,15.217 41.134,15.217 C40.251,15.217 39.619,14.670 39.535,13.870 L43.102,13.870 C43.123,13.691 43.123,13.523 43.123,13.375 C43.123,11.829 42.187,10.745 40.808,10.745 ZM48.912,8.566 L47.554,8.566 L47.554,11.229 C47.144,10.913 46.681,10.745 46.218,10.745 C44.818,10.745 43.840,11.881 43.840,13.502 C43.840,15.122 44.818,16.259 46.218,16.259 C46.681,16.259 47.144,16.091 47.554,15.764 L47.554,16.133 L48.912,16.133 L48.912,8.566 ZM55.690,10.745 C55.238,10.745 54.774,10.913 54.354,11.229 L54.354,8.566 L53.007,8.566 L53.007,16.133 L54.354,16.133 L54.354,15.764 C54.774,16.091 55.238,16.259 55.690,16.259 C57.100,16.259 58.068,15.122 58.068,13.502 C58.068,11.881 57.100,10.745 55.690,10.745 ZM62.310,10.871 L61.037,14.323 L59.774,10.871 L58.395,10.871 L60.405,15.943 L59.395,18.437 L60.700,18.437 L63.689,10.871 L62.310,10.871 ZM73.109,10.288 C73.972,10.288 75.069,10.552 75.933,11.019 L75.933,8.344 C74.992,7.969 74.052,7.825 73.111,7.825 C70.808,7.825 69.273,9.028 69.273,11.038 C69.273,14.181 73.589,13.671 73.589,15.026 C73.589,15.551 73.133,15.721 72.500,15.721 C71.559,15.721 70.345,15.332 69.392,14.814 L69.392,17.525 C70.448,17.979 71.518,18.169 72.497,18.169 C74.858,18.169 76.485,17.003 76.485,14.959 C76.485,11.573 72.144,12.181 72.144,10.903 C72.144,10.460 72.514,10.288 73.109,10.288 ZM82.180,8.014 L80.024,8.014 L80.022,5.548 L77.250,6.138 L77.237,15.247 C77.237,16.928 78.502,18.169 80.187,18.169 C81.115,18.169 81.801,18.001 82.179,17.793 L82.179,15.482 C81.816,15.627 80.024,16.148 80.024,14.475 L80.024,10.435 L82.180,10.435 L82.180,8.014 ZM88.275,8.015 C87.897,7.879 86.570,7.631 85.905,8.853 L85.727,8.014 L83.272,8.014 L83.272,17.966 L86.110,17.966 L86.110,11.219 C86.781,10.338 87.914,10.508 88.275,10.625 L88.275,8.015 ZM91.999,4.230 L89.149,4.836 L89.149,7.149 L91.999,6.543 L91.999,4.230 ZM91.999,8.014 L89.149,8.014 L89.149,17.966 L91.999,17.966 L91.999,8.014 ZM98.125,7.825 C97.012,7.825 96.293,8.349 95.901,8.715 L95.753,8.014 L93.253,8.014 L93.254,21.268 L96.093,20.664 L96.099,17.451 C96.507,17.750 97.114,18.169 98.108,18.169 C100.139,18.169 101.997,16.535 101.997,12.927 C101.997,9.621 100.119,7.825 98.125,7.825 ZM107.049,7.825 C104.348,7.825 102.704,10.121 102.704,13.013 C102.704,16.437 104.642,18.169 107.408,18.169 C108.765,18.169 109.784,17.861 110.555,17.433 L110.555,15.146 C109.781,15.536 108.893,15.774 107.766,15.774 C106.659,15.774 105.684,15.382 105.557,14.051 L111.116,14.051 C111.129,13.898 111.154,13.303 111.154,13.028 C111.154,10.120 109.746,7.825 107.049,7.825 ZM107.031,10.140 C107.728,10.140 108.468,10.677 108.468,11.955 L105.532,11.955 C105.532,10.676 106.321,10.140 107.031,10.140 ZM97.446,15.661 C96.780,15.661 96.383,15.421 96.107,15.122 L96.090,10.903 C96.386,10.578 96.795,10.340 97.446,10.340 C98.485,10.340 99.200,11.504 99.200,12.989 C99.200,14.518 98.496,15.661 97.446,15.661 ZM55.406,15.101 C55.038,15.101 54.669,14.943 54.354,14.628 L54.354,12.376 C54.669,12.060 55.038,11.902 55.406,11.902 C56.164,11.902 56.690,12.555 56.690,13.502 C56.690,14.449 56.164,15.101 55.406,15.101 ZM46.513,15.101 C45.744,15.101 45.218,14.449 45.218,13.502 C45.218,12.555 45.744,11.902 46.513,11.902 C46.881,11.902 47.249,12.060 47.554,12.376 L47.554,14.628 C47.249,14.943 46.881,15.101 46.513,15.101 ZM40.756,11.786 C41.355,11.786 41.787,12.281 41.829,12.997 L39.535,12.997 C39.598,12.271 40.103,11.786 40.756,11.786 ZM31.199,11.786 C31.799,11.786 32.231,12.281 32.273,12.997 L29.978,12.997 C30.042,12.271 30.547,11.786 31.199,11.786 ZM17.043,15.133 C16.254,15.133 15.707,14.470 15.707,13.502 C15.707,12.534 16.254,11.871 17.043,11.871 C17.822,11.871 18.369,12.534 18.369,13.502 C18.369,14.470 17.822,15.133 17.043,15.133 ZM10.939,12.439 L9.918,12.439 L9.918,9.987 L10.939,9.987 C11.718,9.987 12.265,10.482 12.265,11.218 C12.265,11.944 11.718,12.439 10.939,12.439 Z"/>
</svg>
